X:197
T:Reel 197
M:4/4
K:Emin
L:1/8
EF|GEFD EDB,^C|DEFG AFDF||GEFD EDB,A,|B,EE^D E2:||2GFGA GcBA|GAFD E2|EF|GABc d2Bc|de^cA B2GA|GAFD EDE^G|ABAF E2BA|GABc d2cd|edfe edBA|GABc dcBd|edBA GEE2|
